svgs/icons/sm/plane-seat.svg

<svg xmlns="http://www.w3.org/2000/svg" viewBox="0 0 16 16" enable-background="new 0 0 16 16"><path d="M11.861 12.105c.553 0 1-.448 1-1s-.447-1-1-1h-3.336c-.315 0-.61-.155-.789-.415l-1.168-1.693-.096-.174-1.307-3.728c.453-.028.814-.396.814-.856v-1.268c0-.478-.388-.866-.866-.866h-.113v-.105c0-.552-.447-1-1-1s-1 .448-1 1v2.796c0 .113.02.225.057.331l1.538 4.384c.083.219.194.429.328.623l1.167 1.692c.169.245.38.448.607.628v3.546h-1.697c-.552 0-1 .448-1 1h8c0-.552-.448-1-1-1h-2.303v-2.894h3.164z" fill="#34363D"/></svg>

<svg xmlns="http://www.w3.org/2000/svg" viewBox="0 0 16 16"><path d="M11.861 12.105a1 1 0 1 0 0-2H8.525a.958.958 0 0 1-.789-.415L6.568 7.997l-.096-.174-1.307-3.728a.86.86 0 0 0 .814-.856V1.971a.866.866 0 0 0-.866-.866H5V1a1 1 0 1 0-2 0v2.796c0 .113.02.225.057.331l1.538 4.384c.083.219.194.429.328.623l1.167 1.692c.169.245.38.448.607.628V15H5a1 1 0 0 0-1 1h8a1 1 0 0 0-1-1H8.697v-2.894h3.164z" fill="#34363D"/></svg>
